src/qt/rbx/res/img/ic-nav-governance-active.svg

<?xml version="1.0" encoding="UTF-8"?>
<svg width="40px" height="40px" viewBox="0 0 40 40" version="1.1" xmlns="http://www.w3.org/2000/svg" xmlns:xlink="http://www.w3.org/1999/xlink">
    <!-- Generator: Sketch 55 (78076) - https://sketchapp.com -->
    <title>Governance</title>
    <desc>Created with Sketch.</desc>
    <g id="governance" stroke="none" stroke-width="1" fill="none" fill-rule="evenodd">
        <g id="096-bitcoin-4" transform="translate(8.500000, 19.000000)" fill="#007BFE" fill-rule="nonzero">
            <rect id="Rectangle" x="9.25609756" y="10.90625" width="4.48780488" height="2.3125"></rect>
            <rect id="Rectangle" x="8.13414634" y="16.6875" width="2.24390244" height="2.3125"></rect>
            <rect id="Rectangle" x="12.6219512" y="16.6875" width="2.24390244" height="2.3125"></rect>
            <path d="M17.1097561,19 L22.9663415,19 L20.2736585,5.125 L15.9878049,5.125 L15.9878049,2.8125 L22.7195122,2.8125 L22.7195122,0.5 L0.280487805,0.5 L0.280487805,2.8125 L7.01219512,2.8125 L7.01219512,5.125 L2.72746341,5.125 L0.0336585366,19 L5.8902439,19 L5.8902439,16.6875 L2.77121951,16.6875 L4.56634146,7.4375 L18.4347805,7.4375 L20.2299024,16.6875 L17.1097561,16.6875 L17.1097561,19 Z M13.7439024,5.125 L9.25609756,5.125 L9.25609756,2.8125 L13.7439024,2.8125 L13.7439024,5.125 Z" id="Shape"></path>
        </g>
        <path d="M21.6153702,6.29344989 L20.060756,5.88287896 L18.5070842,6.29343023 L15.6868396,4.00025191 L14,7.41914541 L14.6372704,9.9814346 L14.6231851,13.0801933 L17.3105189,16.317344 L20.0608273,17.1488914 L22.8110224,16.3173783 L25.4995965,13.080164 L25.4844271,9.9812623 L26.1216546,7.41914541 L24.4346907,4 L21.6153702,6.29344989 Z M23.4832275,9.74110565 L23.4960581,12.362204 L21.6566322,14.5769897 L20.0608273,15.0594765 L18.4651357,14.577024 L16.6264695,12.3621746 L16.6383842,9.74093335 L16.1176546,7.64722254 L16.370815,7.13411604 L18.0345704,8.48693772 L20.0608986,7.95148899 L22.0882844,8.48691806 L23.7509639,7.13436795 L24.004,7.64722254 L23.4832275,9.74110565 Z" id="Stroke-61" fill="#007BFE" fill-rule="nonzero"></path>
    </g>
</svg>

<?xml version="1.0" encoding="utf-8"?>
<!-- Generator: Adobe Illustrator 23.0.5, SVG Export Plug-In . SVG Version: 6.00 Build 0)  -->
<svg version="1.1" id="Layer_1" xmlns="http://www.w3.org/2000/svg" xmlns:xlink="http://www.w3.org/1999/xlink" x="0px" y="0px"
	 viewBox="0 0 40 40" style="enable-background:new 0 0 40 40;" xml:space="preserve">
<style type="text/css">
	.st0{fill:#AD4DFD;}
</style>
<title>Governance</title>
<desc>Created with Sketch.</desc>
<g id="governance">
	<g transform="translate(8.500000, 19.000000)">
		<rect id="Rectangle" x="9.3" y="10.9" class="st0" width="4.5" height="2.3"/>
		<rect x="8.1" y="16.7" class="st0" width="2.2" height="2.3"/>
		<rect x="12.6" y="16.7" class="st0" width="2.2" height="2.3"/>
		<path id="Shape" class="st0" d="M17.1,19H23L20.3,5.1H16V2.8h6.7V0.5H0.3v2.3H7v2.3H2.7L0,19h5.9v-2.3H2.8l1.8-9.3h13.9l1.8,9.3
			h-3.1V19z M13.7,5.1H9.3V2.8h4.5V5.1z"/>
	</g>
	<path id="Stroke-61" class="st0" d="M21.6,6.3l-1.6-0.4l-1.6,0.4L15.7,4L14,7.4l0.6,2.6l0,3.1l2.7,3.2l2.8,0.8l2.8-0.8l2.7-3.2
		l0-3.1l0.6-2.6L24.4,4L21.6,6.3z M23.5,9.7l0,2.6l-1.8,2.2l-1.6,0.5l-1.6-0.5l-1.8-2.2l0-2.6l-0.5-2.1l0.3-0.5L18,8.5l2-0.5l2,0.5
		l1.7-1.4L24,7.6L23.5,9.7z"/>
</g>
</svg>
